X:10
T:Eun Doue a zeu d'ho kervel
T:(D'on Itron ar Feunteun Gwenn)
C:Air: Itron Varia ar Porzou
M:6/8
L:1/8
K:G
D2G|GFE EFG|D2DD2E|D2B,D2E|D2zD2G|GFE EFG|A2AB2A|G2GFGA|G3z3||
